X: 10229
T: Djinovsko Horo
R: jig
M: 6/8
K: Gmajor
M:5/8
GBG|d z GBG|(Bc) GcB|~A2 GAG|
B2 GBG|d z GBG|(Bc) GcB|~A2 GAE|
~A2 GBG|d z GBG|(Bc) GcB|~A2 G (3Bcd|
B2 GBG|d z GBG|(Bc) GcB|~A2 GAE||
|:~A2 EcB|A z GFG|~A2 EcB|~A2 GBG|
dGG cB|A z GFG|~A2 EcB|~A2 GAE:|
|:~A2 Bcd|cBA BG|~A2 GBG|~A2 GGA|
B2 Gcd|cBA BG|~A2 GBG|~A2 GGD|G2 GBG:|
|:~A2 GGA|B2 GBG|~A2 GAG|dGG AG|
~A2 GGA|B2 GBG|~A2 GGD|~G2 GBG||

